images/click.svg

<svg fill="none" height="68" viewBox="0 0 65 68" width="65" xmlns="http://www.w3.org/2000/svg"><path d="m11.4314 13.7951-2.11827 2.2188c-.36848.386-.37242.9803-.00879 1.3275l10.76486 10.2769c.3636.3472.9571.3157 1.3256-.0703l2.1182-2.2188c.3685-.3859.3724-.9803.0088-1.3274l-10.7648-10.277c-.3637-.3471-.9571-.3156-1.3256.0703z" fill="#ff6b00"/><path d="m12.3847 11.7725-2.1182 2.2188c-.36849.386-.37242.9803-.0088 1.3274l10.7648 10.277c.3637.3471.9572.3157 1.3256-.0703l2.1183-2.2188c.3685-.386.3724-.9803.0088-1.3274l-10.7649-10.277c-.3636-.3472-.9571-.3157-1.3256.0703z" fill="#fff"/><path d="m17.2344 36.036-15.14301.3511c-.51152.0118-.9162.4539-.90383.9874l.0711 3.0667c.01237.5335.4371.9564.94863.9445l15.14301-.3511c.5115-.0118.9162-.4539.9038-.9874l-.0711-3.0667c-.0124-.5335-.4371-.9564-.9486-.9445z" fill="#ff6b00"/><path d="m18.1878 34.0133-15.14304.3511c-.51152.0119-.9162.454-.90383.9875l.0711 3.0667c.01237.5335.4371.9563.94863.9445l15.14304-.3511c.5115-.0119.9161-.454.9038-.9874l-.0711-3.0668c-.0124-.5335-.4371-.9563-.9486-.9445z" fill="#fff"/><path d="m20.6219 52.2214-10.277 10.7649c-.34711.3636-.3156.9571.0703 1.3256l2.2188 2.1182c.386.3685.9803.3724 1.3275.0088l10.2769-10.7648c.3472-.3636.3157-.9572-.0703-1.3256l-2.2187-2.1183c-.386-.3684-.9803-.3724-1.3275-.0088z" fill="#ff6b00"/><path d="m21.5753 50.1988-10.277 10.7649c-.3471.3636-.3157.9571.0703 1.3256l2.2188 2.1182c.386.3685.9803.3724 1.3274.0088l10.277-10.7648c.3472-.3637.3157-.9572-.0703-1.3256l-2.2188-2.1183c-.386-.3684-.9803-.3724-1.3274-.0088z" fill="#fff"/><path d="m58.1989 12.8969-10.277 10.7648c-.3471.3637-.3157.9571.0703 1.3256l2.2188 2.1183c.386.3685.9803.3724 1.3274.0088l10.277-10.7649c.3472-.3636.3157-.9571-.0703-1.3256l-2.2188-2.1182c-.3859-.3685-.9803-.3724-1.3274-.0088z" fill="#ff6b00"/><path d="m59.1522 10.8743-10.2769 10.7648c-.3472.3636-.3157.9571.0703 1.3256l2.2188 2.1182c.3859.3685.9803.3724 1.3274.0088l10.277-10.7648c.3471-.3636.3157-.9572-.0703-1.3256l-2.2188-2.1183c-.386-.3685-.9803-.3724-1.3275-.0087z" fill="#fff"/><path d="m37.4473 3.55872-3.0668.07111c-.5335.01236-.9563.43707-.9445.9486l.3511 15.14307c.0119.5115.454.9161.9875.9038l3.0667-.0711c.5335-.0124.9563-.4371.9445-.9486l-.3511-15.14307c-.0119-.51153-.454-.91618-.9874-.90381z" fill="#ff6b00"/><path d="m38.4006 1.53608-3.0667.0711c-.5335.01237-.9564.43708-.9445.9486l.3511 15.14302c.0119.5115.4539.9162.9874.9038l3.0668-.0711c.5335-.0124.9563-.4371.9444-.9486l-.351-15.14301c-.0119-.51153-.454-.91618-.9875-.90381z" fill="#fff"/></svg>

<svg width="65" height="68" viewBox="0 0 65 68" fill="none" xmlns="http://www.w3.org/2000/svg">
<path d="M11.4314 13.7951L9.31313 16.0139C8.94465 16.3999 8.94071 16.9942 9.30434 17.3414L20.0692 27.6183C20.4328 27.9655 21.0263 27.934 21.3948 27.548L23.513 25.3292C23.8815 24.9433 23.8854 24.3489 23.5218 24.0018L12.757 13.7248C12.3933 13.3777 11.7999 13.4092 11.4314 13.7951Z" fill="#FF6B00"/>
<path d="M12.3847 11.7725L10.2665 13.9913C9.89801 14.3773 9.89408 14.9716 10.2577 15.3187L21.0225 25.5957C21.3862 25.9428 21.9797 25.9114 22.3481 25.5254L24.4664 23.3066C24.8349 22.9206 24.8388 22.3263 24.4752 21.9792L13.7103 11.7022C13.3467 11.355 12.7532 11.3865 12.3847 11.7725Z" fill="white"/>
<path d="M17.2344 36.036L2.09139 36.3871C1.57987 36.3989 1.17519 36.841 1.18756 37.3745L1.25866 40.4412C1.27103 40.9747 1.69576 41.3976 2.20729 41.3857L17.3503 41.0346C17.8618 41.0228 18.2665 40.5807 18.2541 40.0472L18.183 36.9805C18.1706 36.447 17.7459 36.0241 17.2344 36.036Z" fill="#FF6B00"/>
<path d="M18.1878 34.0133L3.04476 34.3644C2.53324 34.3763 2.12856 34.8184 2.14093 35.3519L2.21203 38.4186C2.2244 38.9521 2.64913 39.3749 3.16066 39.3631L18.3037 39.012C18.8152 39.0001 19.2198 38.558 19.2075 38.0246L19.1364 34.9578C19.124 34.4243 18.6993 34.0015 18.1878 34.0133Z" fill="white"/>
<path d="M20.6219 52.2214L10.3449 62.9863C9.99779 63.3499 10.0293 63.9434 10.4152 64.3119L12.634 66.4301C13.02 66.7986 13.6143 66.8025 13.9615 66.4389L24.2384 55.6741C24.5856 55.3105 24.5541 54.7169 24.1681 54.3485L21.9494 52.2302C21.5634 51.8618 20.9691 51.8578 20.6219 52.2214Z" fill="#FF6B00"/>
<path d="M21.5753 50.1988L11.2983 60.9637C10.9512 61.3273 10.9826 61.9208 11.3686 62.2893L13.5874 64.4075C13.9734 64.776 14.5677 64.7799 14.9148 64.4163L25.1918 53.6515C25.539 53.2878 25.5075 52.6943 25.1215 52.3259L22.9027 50.2076C22.5167 49.8392 21.9224 49.8352 21.5753 50.1988Z" fill="white"/>
<path d="M58.1989 12.8969L47.9219 23.6617C47.5748 24.0254 47.6062 24.6188 47.9922 24.9873L50.211 27.1056C50.597 27.4741 51.1913 27.478 51.5384 27.1144L61.8154 16.3495C62.1626 15.9859 62.1311 15.3924 61.7451 15.0239L59.5263 12.9057C59.1404 12.5372 58.546 12.5333 58.1989 12.8969Z" fill="#FF6B00"/>
<path d="M59.1522 10.8743L48.8753 21.6391C48.5281 22.0027 48.5596 22.5962 48.9456 22.9647L51.1644 25.0829C51.5503 25.4514 52.1447 25.4553 52.4918 25.0917L62.7688 14.3269C63.1159 13.9633 63.0845 13.3697 62.6985 13.0013L60.4797 10.883C60.0937 10.5145 59.4994 10.5106 59.1522 10.8743Z" fill="white"/>
<path d="M37.4473 3.55872L34.3805 3.62983C33.847 3.64219 33.4242 4.0669 33.436 4.57843L33.7871 19.7215C33.799 20.233 34.2411 20.6376 34.7746 20.6253L37.8413 20.5542C38.3748 20.5418 38.7976 20.1171 38.7858 19.6056L38.4347 4.46253C38.4228 3.951 37.9807 3.54635 37.4473 3.55872Z" fill="#FF6B00"/>
<path d="M38.4006 1.53608L35.3339 1.60718C34.8004 1.61955 34.3775 2.04426 34.3894 2.55578L34.7405 17.6988C34.7524 18.2103 35.1944 18.615 35.7279 18.6026L38.7947 18.5315C39.3282 18.5191 39.751 18.0944 39.7391 17.5829L39.3881 2.43989C39.3762 1.92836 38.9341 1.52371 38.4006 1.53608Z" fill="white"/>
</svg>
